Numix-Circle/48x48/apps/thunderbird-branded.svg

<?xml version="1.0" encoding="UTF-8" standalone="no"?>
<svg
   xmlns:dc="http://purl.org/dc/elements/1.1/"
   xmlns:cc="http://creativecommons.org/ns#"
   xmlns:rdf="http://www.w3.org/1999/02/22-rdf-syntax-ns#"
   xmlns:svg="http://www.w3.org/2000/svg"
   xmlns="http://www.w3.org/2000/svg"
   xmlns:xlink="http://www.w3.org/1999/xlink"
   xmlns:sodipodi="http://sodipodi.sourceforge.net/DTD/sodipodi-0.dtd"
   xmlns:inkscape="http://www.inkscape.org/namespaces/inkscape"
   viewBox="0 0 48 48"
   id="svg2"
   version="1.1"
   inkscape:version="0.91 r13725"
   sodipodi:docname="thunderbird-branded.svg">
  <metadata
     id="metadata64">
    <rdf:RDF>
      <cc:Work
         rdf:about="">
        <dc:format>image/svg+xml</dc:format>
        <dc:type
           rdf:resource="http://purl.org/dc/dcmitype/StillImage" />
      </cc:Work>
    </rdf:RDF>
  </metadata>
  <sodipodi:namedview
     pagecolor="#ffffff"
     bordercolor="#666666"
     borderopacity="1"
     objecttolerance="10"
     gridtolerance="10"
     guidetolerance="10"
     inkscape:pageopacity="0"
     inkscape:pageshadow="2"
     inkscape:window-width="1580"
     inkscape:window-height="838"
     id="namedview62"
     showgrid="true"
     inkscape:zoom="2.8284271"
     inkscape:cx="3.3898535"
     inkscape:cy="-11.751323"
     inkscape:window-x="10"
     inkscape:window-y="796"
     inkscape:window-maximized="0"
     inkscape:current-layer="svg2"
     showguides="false">
    <inkscape:grid
       type="xygrid"
       id="grid4233" />
  </sodipodi:namedview>
  <defs
     id="defs4">
    <linearGradient
       inkscape:collect="always"
       id="linearGradient4243">
      <stop
         style="stop-color:#3478ec;stop-opacity:1;"
         offset="0"
         id="stop4245" />
      <stop
         style="stop-color:#4684ee;stop-opacity:1"
         offset="1"
         id="stop4247" />
    </linearGradient>
    <linearGradient
       inkscape:collect="always"
       xlink:href="#linearGradient4243"
       id="linearGradient4249"
       x1="1"
       y1="46"
       x2="1"
       y2="1"
       gradientUnits="userSpaceOnUse" />
  </defs>
  <g
     id="g12">
    <path
       d="m 36.31 5 c 5.859 4.062 9.688 10.831 9.688 18.5 c 0 12.426 -10.07 22.5 -22.5 22.5 c -7.669 0 -14.438 -3.828 -18.5 -9.688 c 1.037 1.822 2.306 3.499 3.781 4.969 c 4.085 3.712 9.514 5.969 15.469 5.969 c 12.703 0 23 -10.298 23 -23 c 0 -5.954 -2.256 -11.384 -5.969 -15.469 c -1.469 -1.475 -3.147 -2.744 -4.969 -3.781 z m 4.969 3.781 c 3.854 4.113 6.219 9.637 6.219 15.719 c 0 12.703 -10.297 23 -23 23 c -6.081 0 -11.606 -2.364 -15.719 -6.219 c 4.16 4.144 9.883 6.719 16.219 6.719 c 12.703 0 23 -10.298 23 -23 c 0 -6.335 -2.575 -12.06 -6.719 -16.219 z"
       style="opacity:0.05"
       id="path14" />
    <path
       d="m 41.28 8.781 c 3.712 4.085 5.969 9.514 5.969 15.469 c 0 12.703 -10.297 23 -23 23 c -5.954 0 -11.384 -2.256 -15.469 -5.969 c 4.113 3.854 9.637 6.219 15.719 6.219 c 12.703 0 23 -10.298 23 -23 c 0 -6.081 -2.364 -11.606 -6.219 -15.719 z"
       style="opacity:0.1"
       id="path16" />
    <path
       d="m 31.25 2.375 c 8.615 3.154 14.75 11.417 14.75 21.13 c 0 12.426 -10.07 22.5 -22.5 22.5 c -9.708 0 -17.971 -6.135 -21.12 -14.75 a 23 23 0 0 0 44.875 -7 a 23 23 0 0 0 -16 -21.875 z"
       style="opacity:0.2"
       id="path18" />
  </g>
  <path
     style="fill:#ffdaa5;fill-opacity:1"
     d="M 3.796875 35 C 7.6976984 42.149046 15.282006 47 24 47 C 27.194073 47 30.235601 46.348452 33 45.171875 L 33 35 L 3.796875 35 z "
     id="path20" />
  <path
     inkscape:connector-curvature="0"
     id="path44"
     style="fill:#f4c53b;fill-opacity:1;fill-rule:nonzero;stroke:none"
     d="m 31.593887,40.34 -26.6950005,-8.25 -1.418,-11.855 6,-9.129 28.1100005,6.488 -0.5,17.699 m -5.504,5.05" />
  <path
     style="fill:#000000;fill-opacity:1;opacity:0.1"
     d="M 25 2 C 12.297 2 2 12.297 2 25 C 2 30.949045 4.2586332 36.36996 7.9648438 40.453125 C 8.3333278 40.575766 8.7136469 40.80998 9.0839844 40.974609 C 11.390625 42 14 42.236328 14.736328 42.001953 C 15.087328 41.935953 14.888641 41.997953 14.931641 41.626953 C 15.001641 41.364953 15.059062 41.368889 15.789062 41.712891 C 16.860063 42.216891 17.177516 42.181487 16.353516 41.646484 C 15.185516 40.888484 14.134297 39.826547 13.779297 39.060547 C 13.275297 37.951547 12.802672 36.599672 12.888672 36.513672 C 12.931672 36.474672 13.349266 36.771734 13.822266 37.177734 C 14.799266 38.017734 16.427297 38.840094 17.404297 38.996094 C 17.803297 38.949094 17.728984 38.708703 17.583984 38.470703 C 16.149984 36.646703 15.423391 36.552953 23.775391 39.251953 C 27.884391 40.575953 31.275641 41.680125 31.306641 41.703125 C 31.337641 41.726125 31.150672 42.008125 30.888672 42.328125 C 30.252672 43.121125 28.256203 44.652469 26.783203 45.480469 C 26.118203 45.855469 25.529703 46.226594 25.470703 46.308594 C 24.857703 46.375594 25.173328 46.640344 25.611328 46.777344 C 26.516503 46.944214 29.721683 46.350663 31.689453 45.666016 C 32.131097 45.511003 32.571776 45.354134 33 45.171875 L 33 45.164062 C 41.228412 41.661193 47 33.507738 47 24 C 47 17.902876 44.623773 12.364055 40.751953 8.2480469 C 36.635945 4.3762268 31.097124 2 25 2 z M 10.007812 15.203125 C 10.102623 15.206625 10.216875 15.220687 10.359375 15.242188 C 11.902375 15.481186 12.148437 15.845672 12.148438 17.888672 L 12.144531 17.888672 C 12.144531 18.513672 12.054691 19.076234 11.929688 19.240234 C 11.726686 19.509234 11.707219 19.50941 11.449219 19.232422 C 11.304219 19.072422 10.734687 18.259734 10.179688 17.427734 C 9.211687 15.970734 9.1834062 15.90225 9.4414062 15.53125 C 9.6139062 15.27625 9.7233815 15.192634 10.007812 15.203125 z M 8.7207031 17.017578 C 8.9127031 17.017578 11.099203 20.029703 11.408203 20.720703 C 11.533203 20.994703 11.669984 21.392609 11.708984 21.599609 C 11.884984 22.478609 12.084016 22.700766 12.416016 22.384766 C 12.525016 22.279766 13.420172 23.416484 15.076172 25.771484 C 16.447172 27.720484 17.365297 29.083578 17.779297 29.392578 C 18.084297 29.615578 21.368859 28.193672 25.505859 26.638672 C 29.642859 25.080672 33.189578 23.830422 33.392578 23.857422 C 33.724578 23.903422 33.759734 24.013891 33.802734 25.212891 C 33.861734 26.747891 33.505734 28.552828 32.927734 29.673828 C 32.696734 30.119828 32.580203 30.537328 32.658203 30.611328 C 32.740203 30.689328 33.298922 30.513798 33.919922 30.216797 C 34.938922 29.728797 35.721016 29.060703 36.541016 27.970703 C 36.826016 27.595703 36.826172 27.595453 36.826172 28.314453 C 36.725172 29.932453 36.341766 31.446891 35.759766 32.962891 C 35.298766 34.704891 34.517797 36.634609 33.466797 38.599609 L 33.455078 38.59375 C 32.905078 39.62475 32.335594 40.574031 32.183594 40.707031 C 31.949594 40.915031 30.605406 40.527563 19.816406 37.101562 C 13.168406 34.988563 7.6762812 33.211438 7.6132812 33.148438 C 7.5542812 33.086438 7.3122187 32.512094 7.0742188 31.871094 C 6.5352188 30.422094 6.0191875 28.011281 5.8671875 26.238281 L 5.7539062 24.886719 L 6.3945312 25.570312 C 7.0895313 26.305312 7.7616875 26.707031 8.3046875 26.707031 L 8.6484375 26.707031 L 8.3125 26.070312 C 7.3085 24.184313 7.207125 20.833859 8.078125 18.380859 C 8.344125 17.630859 8.6307031 17.017578 8.7207031 17.017578 z M 21.902344 17.419922 C 22.636344 17.423922 24.023281 17.564422 24.988281 17.732422 C 29.917281 18.607422 32.066688 19.025672 32.179688 19.138672 C 32.370688 19.329672 33.326172 22.103891 33.326172 22.462891 C 33.322172 22.739891 32.244359 23.189922 25.943359 25.544922 L 25.949219 25.544922 C 21.890219 27.064922 18.160594 28.618672 18.058594 28.513672 C 17.488594 27.958672 13.062594 21.630703 13.308594 21.345703 C 13.456594 20.888703 13.761564 20.943266 14.226562 20.697266 C 14.608562 20.478266 14.894937 20.341578 15.085938 20.142578 C 16.463938 19.044578 17.945406 18.333859 19.566406 17.880859 C 20.418406 17.489859 20.769344 17.419922 21.902344 17.419922 z "
     id="path4158" />
  <path
     style="fill:url(#linearGradient4249);fill-opacity:1;fill-rule:nonzero;stroke:none"
     d="M 24,1 C 11.297,1 1,11.297 1,24 1,29.949045 3.2586332,35.36996 6.9648438,39.453125 7.3333279,39.575766 7.7136469,39.80998 8.0839844,39.974609 10.390625,41 13,41.236328 13.736328,41.001953 c 0.351,-0.066 0.152313,-0.004 0.195313,-0.375 0.07,-0.262 0.127421,-0.258062 0.857421,0.08594 1.071001,0.504 1.388454,0.468593 0.564454,-0.06641 -1.168,-0.758 -2.219219,-1.819937 -2.574219,-2.585937 -0.504,-1.109 -0.976625,-2.460875 -0.890625,-2.546875 0.043,-0.039 0.460594,0.258062 0.933594,0.664062 0.977,0.84 2.605031,1.66236 3.582031,1.81836 0.399,-0.047 0.324687,-0.287391 0.179687,-0.525391 -1.434,-1.824 -2.160593,-1.91775 6.191407,0.78125 4.109,1.324 7.50025,2.428172 7.53125,2.451172 0.031,0.023 -0.155969,0.305 -0.417969,0.625 -0.636,0.793 -2.632469,2.324344 -4.105469,3.152344 -0.665,0.375 -1.2535,0.746125 -1.3125,0.828125 -0.613,0.067 -0.297375,0.33175 0.140625,0.46875 0.933,0.172 4.332344,-0.460875 6.277344,-1.171875 0.461,-0.168 0.874531,-0.284906 0.894531,-0.253907 0.078,0.07 -1.05125,0.777125 -1.90625,1.203126 -0.394,0.187 -0.707031,0.375156 -0.707031,0.410156 l 0,0.0098 c 0,0.039 0.129062,0.04263 0.289062,0.01563 0.16,-0.023 0.668,-0.101968 1.125,-0.167968 0.17799,-0.02474 0.475479,-0.02153 0.751954,-0.02344 C 40.440232,42.736056 47,34.136936 47,24 47,11.297 36.703,1 24,1 Z M 9.0078125,14.203125 c 0.094812,0.0035 0.2090625,0.01756 0.3515625,0.03906 1.543,0.238999 1.789063,0.603484 1.789063,2.646484 l -0.0039,0 c 0,0.625 -0.08984,1.187562 -0.214843,1.351562 -0.203001,0.269 -0.222469,0.269188 -0.480469,-0.0078 -0.145,-0.16 -0.7145315,-0.972688 -1.2695315,-1.804688 -0.968,-1.457 -0.9962813,-1.525484 -0.7382813,-1.896484 0.1725,-0.255 0.2819688,-0.338625 0.5663993,-0.328134 z m -1.2871094,1.814453 c 0.192,0 2.3784999,3.012125 2.6874999,3.703125 0.125,0.274 0.261781,0.671906 0.300781,0.878906 0.176,0.879 0.375032,1.101157 0.707032,0.785157 0.109,-0.105 1.004156,1.031718 2.660156,3.386718 1.371,1.949 2.289125,3.312094 2.703125,3.621094 0.305,0.223 3.589562,-1.198906 7.726562,-2.753906 4.137,-1.558 7.683719,-2.80825 7.886719,-2.78125 0.332,0.046 0.367156,0.156469 0.410156,1.355469 0.059,1.535 -0.297,3.339937 -0.875,4.460937 -0.231,0.446 -0.347531,0.8635 -0.269531,0.9375 0.082,0.078 0.640719,-0.09753 1.261719,-0.394531 1.019,-0.488 1.801094,-1.156094 2.621094,-2.246094 0.285,-0.375 0.285156,-0.37525 0.285156,0.34375 -0.101,1.618 -0.484406,3.132438 -1.066406,4.648438 -0.461,1.742 -1.241969,3.671718 -2.292969,5.636718 l -0.01172,-0.0059 c -0.55,1.031 -1.119484,1.980281 -1.271484,2.113281 -0.234,0.208 -1.578188,-0.179468 -12.367188,-3.605469 -6.648,-2.112999 -12.1401248,-3.890124 -12.2031248,-3.953124 -0.059,-0.062 -0.3010624,-0.636344 -0.5390624,-1.277344 -0.539,-1.449 -1.0550313,-3.859813 -1.2070313,-5.632813 l -0.1132813,-1.351562 0.640625,0.683593 c 0.695,0.735 1.3671563,1.136719 1.9101563,1.136719 l 0.34375,0 L 7.3125,25.070312 c -1.004,-1.885999 -1.105375,-5.236453 -0.234375,-7.689453 0.266,-0.75 0.5525781,-1.363281 0.6425781,-1.363281 z m 13.1816409,0.402344 c 0.734,0.004 2.120937,0.1445 3.085937,0.3125 4.929,0.875 7.078407,1.29325 7.191407,1.40625 0.191,0.191 1.146484,2.965219 1.146484,3.324219 -0.004,0.277 -1.081813,0.727031 -7.382813,3.082031 l 0.0059,0 c -4.059,1.52 -7.788625,3.07375 -7.890625,2.96875 -0.57,-0.555 -4.996,-6.882969 -4.75,-7.167969 0.148,-0.457 0.452969,-0.402437 0.917968,-0.648437 0.382,-0.219 0.668375,-0.355688 0.859376,-0.554688 1.378,-1.098 2.859468,-1.808719 4.480468,-2.261719 0.852,-0.391 1.202938,-0.460937 2.335938,-0.460937 z"
     id="use46"
     inkscape:connector-curvature="0"
     sodipodi:nodetypes="sscsccccccccccscccccccsscccssscccccccsscccccccccccccccccccccccscccsccscccccccccc" />
  <path
     style="fill:#f9f9f9;fill-opacity:1;fill-rule:nonzero;stroke:none"
     d="M 15.324219 14.40625 C 15.226094 14.412125 15.124766 14.437234 15.009766 14.490234 C 14.654766 14.654234 14.392609 14.864859 14.349609 15.505859 C 14.298609 16.263859 14.296936 16.267578 14.835938 16.267578 C 15.132937 16.267578 15.513641 16.147047 15.681641 15.998047 L 15.675781 15.992188 C 15.866781 15.824187 15.980469 15.505859 15.980469 15.130859 C 15.980469 14.650859 15.910281 14.513453 15.613281 14.439453 C 15.515781 14.413953 15.422344 14.400375 15.324219 14.40625 z "
     id="use50" />
  <path
     inkscape:connector-curvature="0"
     id="path52"
     style="fill:#2d2d2d;fill-opacity:1;fill-rule:nonzero;stroke:none"
     d="m 15.765887,15.32 c 0,0.289 -0.234,0.523 -0.523,0.523 -0.289,0 -0.523,-0.234 -0.523,-0.523 0,-0.289 0.234,-0.523 0.523,-0.523 0.289,0 0.523,0.234 0.523,0.523 m 0,0" />
  <path
     inkscape:connector-curvature="0"
     id="path54"
     style="fill:#a88628;fill-opacity:1;fill-rule:nonzero;stroke:none"
     d="m 8.4058865,14.586 c -0.379,0.652 -0.57,1.059 -0.953,1.871 2.8630005,4.762 6.1480005,8.34 9.2660005,12.828 1.309,-0.047 10.664,-4.73 15.996,-6.156 -0.063,-0.477 -0.207,-1.168 -0.355,-1.734 l -15.191,6.109 M 8.4068865,14.586" />
  <path
     inkscape:connector-curvature="0"
     id="path56"
     style="fill:#b9b9b9;fill-opacity:1;fill-rule:nonzero;stroke:none"
     d="m 10.913887,18.242 -0.723,1.875 0.875,2.578 0.676,-1.809 0.586,-0.535 c -1.418,-2.105 -0.988,-1.41 -1.418,-2.109 m 0.004,0" />
  <g
     id="g58">
    <path
       d="m 40.03 7.531 c 3.712 4.084 5.969 9.514 5.969 15.469 0 12.703 -10.297 23 -23 23 c -5.954 0 -11.384 -2.256 -15.469 -5.969 4.178 4.291 10.01 6.969 16.469 6.969 c 12.703 0 23 -10.298 23 -23 0 -6.462 -2.677 -12.291 -6.969 -16.469 z"
       style="opacity:0.1"
       id="path60" />
  </g>
</svg>

<svg xmlns="http://www.w3.org/2000/svg" viewBox="0 0 48 48">
 <defs>
  <linearGradient id="linearGradient4249" y1="46" x2="0" y2="1" gradientUnits="userSpaceOnUse">
   <stop style="stop-color:#3478ec;stop-opacity:1"/>
   <stop offset="1" style="stop-color:#4684ee;stop-opacity:1"/>
  </linearGradient>
 </defs>
 <g>
  <path d="m 36.31 5 c 5.859 4.062 9.688 10.831 9.688 18.5 c 0 12.426 -10.07 22.5 -22.5 22.5 c -7.669 0 -14.438 -3.828 -18.5 -9.688 c 1.037 1.822 2.306 3.499 3.781 4.969 c 4.085 3.712 9.514 5.969 15.469 5.969 c 12.703 0 23 -10.298 23 -23 c 0 -5.954 -2.256 -11.384 -5.969 -15.469 c -1.469 -1.475 -3.147 -2.744 -4.969 -3.781 z m 4.969 3.781 c 3.854 4.113 6.219 9.637 6.219 15.719 c 0 12.703 -10.297 23 -23 23 c -6.081 0 -11.606 -2.364 -15.719 -6.219 c 4.16 4.144 9.883 6.719 16.219 6.719 c 12.703 0 23 -10.298 23 -23 c 0 -6.335 -2.575 -12.06 -6.719 -16.219 z" style="opacity:0.05"/>
  <path d="m 41.28 8.781 c 3.712 4.085 5.969 9.514 5.969 15.469 c 0 12.703 -10.297 23 -23 23 c -5.954 0 -11.384 -2.256 -15.469 -5.969 c 4.113 3.854 9.637 6.219 15.719 6.219 c 12.703 0 23 -10.298 23 -23 c 0 -6.081 -2.364 -11.606 -6.219 -15.719 z" style="opacity:0.1"/>
  <path d="m 31.25 2.375 c 8.615 3.154 14.75 11.417 14.75 21.13 c 0 12.426 -10.07 22.5 -22.5 22.5 c -9.708 0 -17.971 -6.135 -21.12 -14.75 a 23 23 0 0 0 44.875 -7 a 23 23 0 0 0 -16 -21.875 z" style="opacity:0.2"/>
 </g>
 <path d="m 3.797 35 c 3.901 7.149 11.485 12 20.2 12 c 3.194 0 6.236 -0.652 9 -1.828 l 0 -10.172 l -29.2 0 z" style="fill:#ffdaa5;fill-opacity:1"/>
 <path d="m 31.594 40.34 -26.695 -8.25 -1.418 -11.855 6 -9.129 28.11 6.488 -0.5 17.699 m -5.504 5.05" style="fill:#f4c53b;fill-opacity:1;stroke:none;fill-rule:nonzero"/>
 <path d="m 25 2 c -12.703 0 -23 10.297 -23 23 c 0 5.949 2.259 11.37 5.965 15.453 c 0.368 0.123 0.749 0.357 1.119 0.521 c 2.307 1.025 4.916 1.262 5.652 1.027 c 0.351 -0.066 0.152 -0.004 0.195 -0.375 c 0.07 -0.262 0.127 -0.258 0.857 0.086 c 1.071 0.504 1.388 0.469 0.564 -0.066 c -1.168 -0.758 -2.219 -1.82 -2.574 -2.586 c -0.504 -1.109 -0.977 -2.461 -0.891 -2.547 c 0.043 -0.039 0.461 0.258 0.934 0.664 c 0.977 0.84 2.605 1.662 3.582 1.818 c 0.399 -0.047 0.325 -0.287 0.18 -0.525 c -1.434 -1.824 -2.161 -1.918 6.191 0.781 c 4.109 1.324 7.5 2.428 7.531 2.451 c 0.031 0.023 -0.156 0.305 -0.418 0.625 c -0.636 0.793 -2.632 2.324 -4.105 3.152 c -0.665 0.375 -1.253 0.746 -1.313 0.828 c -0.613 0.067 -0.297 0.332 0.141 0.469 c 0.905 0.167 4.11 -0.427 6.078 -1.111 c 0.442 -0.155 0.882 -0.312 1.311 -0.494 l 0 -0.008 c 8.228 -3.503 14 -11.656 14 -21.16 c 0 -6.097 -2.376 -11.636 -6.248 -15.752 c -4.116 -3.872 -9.655 -6.248 -15.752 -6.248 z m -14.992 13.203 c 0.095 0.004 0.209 0.018 0.352 0.039 c 1.543 0.239 1.789 0.603 1.789 2.646 l -0.004 0 c 0 0.625 -0.09 1.188 -0.215 1.352 c -0.203 0.269 -0.222 0.269 -0.48 -0.008 c -0.145 -0.16 -0.715 -0.973 -1.27 -1.805 c -0.968 -1.457 -0.996 -1.525 -0.738 -1.896 c 0.173 -0.255 0.282 -0.339 0.566 -0.328 z m -1.287 1.814 c 0.192 0 2.378 3.01 2.687 3.703 c 0.125 0.274 0.262 0.672 0.301 0.879 c 0.176 0.879 0.375 1.101 0.707 0.785 c 0.109 -0.105 1 1.032 2.66 3.387 c 1.371 1.949 2.289 3.312 2.703 3.621 c 0.305 0.223 3.59 -1.199 7.727 -2.754 c 4.137 -1.558 7.684 -2.808 7.887 -2.781 c 0.332 0.046 0.367 0.156 0.41 1.355 c 0.059 1.535 -0.297 3.34 -0.875 4.461 c -0.231 0.446 -0.348 0.863 -0.27 0.938 c 0.082 0.078 0.641 -0.098 1.262 -0.395 c 1.019 -0.488 1.801 -1.156 2.621 -2.246 c 0.285 -0.375 0.285 -0.375 0.285 0.344 c -0.101 1.618 -0.484 3.132 -1.066 4.648 c -0.461 1.742 -1.242 3.672 -2.293 5.637 l -0.012 -0.006 c -0.55 1.031 -1.119 1.98 -1.271 2.113 c -0.234 0.208 -1.578 -0.179 -12.367 -3.605 c -6.648 -2.113 -12.14 -3.89 -12.203 -3.953 c -0.059 -0.062 -0.301 -0.636 -0.539 -1.277 c -0.539 -1.449 -1.055 -3.86 -1.207 -5.633 l -0.113 -1.352 l 0.641 0.684 c 0.695 0.735 1.367 1.137 1.91 1.137 l 0.344 0 l -0.336 -0.637 c -1 -1.886 -1.105 -5.236 -0.234 -7.689 c 0.266 -0.75 0.553 -1.363 0.643 -1.363 z m 13.182 0.402 c 0.734 0.004 2.121 0.145 3.086 0.313 c 4.929 0.875 7.078 1.293 7.191 1.406 c 0.191 0.191 1.146 2.965 1.146 3.324 c -0.004 0.277 -1.082 0.727 -7.383 3.082 l 0.006 0 c -4.059 1.52 -7.789 3.074 -7.891 2.969 c -0.57 -0.555 -4.996 -6.883 -4.75 -7.168 c 0.148 -0.457 0.453 -0.402 0.918 -0.648 c 0.382 -0.219 0.668 -0.356 0.859 -0.555 c 1.378 -1.098 2.859 -1.809 4.48 -2.262 c 0.852 -0.391 1.203 -0.461 2.336 -0.461 z" style="fill:#000;opacity:0.1;fill-opacity:1"/>
 <path d="m 23.998 0.998 0.002 0.002 c -12.703 0 -23 10.297 -23 23 c 0 5.949 2.259 11.37 5.965 15.453 0.368 0.123 0.749 0.357 1.119 0.521 2.307 1.025 4.916 1.262 5.652 1.027 0.351 -0.066 0.152 -0.004 0.195 -0.375 0.07 -0.262 0.125 -0.258 0.855 0.086 1.071 0.504 1.388 0.469 0.564 -0.066 -1.168 -0.758 -2.219 -1.82 -2.574 -2.586 -0.504 -1.109 -0.977 -2.461 -0.891 -2.547 0.043 -0.039 0.461 0.258 0.934 0.664 0.977 0.84 2.605 1.66 3.582 1.816 0.399 -0.047 0.325 -0.285 0.18 -0.523 -1.434 -1.824 -2.161 -1.918 6.191 0.781 4.109 1.324 7.5 2.426 7.531 2.449 0.031 0.023 -0.156 0.305 -0.418 0.625 -0.636 0.793 -2.632 2.324 -4.105 3.152 -0.665 0.375 -1.253 0.746 -1.313 0.828 -0.613 0.067 -0.297 0.332 0.141 0.469 0.933 0.172 4.332 -0.461 6.277 -1.172 0.461 -0.168 0.875 -0.285 0.895 -0.254 0.078 0.07 -1.049 0.777 -1.904 1.203 -0.394 0.187 -0.707 0.375 -0.707 0.41 l 0 0.01 c 0 0.039 0.127 0.043 0.287 0.016 0.16 -0.023 0.668 -0.102 1.125 -0.168 0.178 -0.025 0.477 -0.02 0.754 -0.021 9.104 -3.063 15.662 -11.664 15.662 -21.801 0 -12.703 -10.297 -23 -23 -23 z m -14.99 13.203 c 0.095 0.004 0.209 0.018 0.352 0.039 1.543 0.239 1.789 0.603 1.789 2.646 l -0.004 0 c 0 0.625 -0.09 1.188 -0.215 1.352 c 0.07 1.762 0.07 1.762 1.377 2.105 c 0.148 -0.457 0.453 -0.402 0.918 -0.648 0.382 -0.219 0.668 -0.356 0.859 -0.555 1.378 -1.098 2.859 -1.809 4.48 -2.262 0.852 -0.391 1.203 -0.461 2.336 -0.461 l 0.002 0 c 0.734 0.004 2.121 0.145 3.086 0.313 4.929 0.875 7.078 1.293 7.191 1.406 0.191 0.191 1.145 2.965 1.145 3.324 l 0.068 1.395 c 0.332 0.046 0.367 0.156 0.41 1.355 0.059 1.535 -0.297 3.34 -0.875 4.461 -0.231 0.446 -0.349 0.863 -0.271 0.938 0.082 0.078 0.643 -0.098 1.264 -0.395 1.019 -0.488 1.799 -1.156 2.619 -2.246 0.285 -0.375 0.285 -0.375 0.285 0.344 -0.101 1.618 -0.482 3.132 -1.064 4.648 -0.461 1.742 -1.242 3.672 -2.293 5.637 l -0.014 -0.006 c -0.55 1.031 -1.118 1.98 -1.27 2.113 -0.234 0.208 -1.578 -0.179 -12.367 -3.605 -6.648 -2.113 -12.14 -3.89 -12.203 -3.953 -0.059 -0.062 -0.301 -0.636 -0.539 -1.277 -0.539 -1.449 -1.055 -3.86 -1.207 -5.633 l -0.113 -1.352 0.641 0.684 c 0.695 0.735 1.367 1.137 1.91 1.137 l 0.344 0 l -0.336 -0.637 c -1 -1.886 -1.105 -5.235 -0.234 -7.688 0.266 -0.75 0.555 -1.363 0.645 -1.363 l 0.719 -1.488 c 0.172 -0.255 0.282 -0.339 0.566 -0.328 z" style="fill:url(#linearGradient4249);fill-opacity:1;stroke:none;fill-rule:nonzero"/>
 <path d="m 15.324 14.406 c -0.098 0.006 -0.199 0.031 -0.314 0.084 c -0.355 0.164 -0.617 0.375 -0.66 1.016 c -0.051 0.758 -0.053 0.762 0.486 0.762 c 0.297 0 0.678 -0.121 0.846 -0.27 l -0.006 -0.006 c 0.191 -0.168 0.305 -0.486 0.305 -0.861 c 0 -0.48 -0.07 -0.617 -0.367 -0.691 c -0.098 -0.026 -0.191 -0.039 -0.289 -0.033 z" style="fill:#f9f9f9;fill-opacity:1;stroke:none;fill-rule:nonzero"/>
 <path d="m 15.766 15.32 c 0 0.289 -0.234 0.523 -0.523 0.523 -0.289 0 -0.523 -0.234 -0.523 -0.523 0 -0.289 0.234 -0.523 0.523 -0.523 0.289 0 0.523 0.234 0.523 0.523 m 0 0" style="fill:#2d2d2d;fill-opacity:1;stroke:none;fill-rule:nonzero"/>
 <path d="m 8.406 14.586 c -0.379 0.652 -0.57 1.059 -0.953 1.871 2.863 4.762 6.148 8.34 9.266 12.828 1.309 -0.047 10.664 -4.73 15.996 -6.156 -0.063 -0.477 -0.207 -1.168 -0.355 -1.734 l -15.191 6.109 m -8.762 -12.918" style="fill:#a88628;fill-opacity:1;stroke:none;fill-rule:nonzero"/>
 <path d="m 10.914 18.242 -0.723 1.875 0.875 2.578 0.676 -1.809 0.586 -0.535 c -1.418 -2.105 -0.988 -1.41 -1.418 -2.109 m 0.004 0" style="fill:#b9b9b9;fill-opacity:1;stroke:none;fill-rule:nonzero"/>
 <g>
  <path d="m 40.03 7.531 c 3.712 4.084 5.969 9.514 5.969 15.469 0 12.703 -10.297 23 -23 23 c -5.954 0 -11.384 -2.256 -15.469 -5.969 4.178 4.291 10.01 6.969 16.469 6.969 c 12.703 0 23 -10.298 23 -23 0 -6.462 -2.677 -12.291 -6.969 -16.469 z" style="opacity:0.1"/>
 </g>
</svg>
